Numix-GalliumOS/64/devices/camera.svg

<?xml version="1.0" encoding="UTF-8" standalone="yes"?>
<svg xmlns="http://www.w3.org/2000/svg" xmlns:xlink="http://www.w3.org/1999/xlink" width="64px" height="64px" viewBox="0 0 48 48" version="1.1">
  <g id="surface1">
    <path style="fill:none;stroke-width:0.5;stroke-linecap:butt;stroke-linejoin:miter;stroke:rgb(100%,100%,100%);stroke-opacity:1;stroke-miterlimit:4;" d="M 15.000693 16.873695 L 12.815086 31.093392 L 32.750693 31.093392 L 30.000693 16.866119 Z M 15.000693 16.873695 " transform="matrix(1.03125,0,0,1.03125,-4.25462,-3.193967)"/>
    <path style="fill:none;stroke-width:0.5;stroke-linecap:butt;stroke-linejoin:miter;stroke:rgb(100%,100%,100%);stroke-opacity:1;stroke-miterlimit:4;" d="M 12.739329 31.582028 L 12.739329 34.608544 L 32.82645 34.608544 L 32.82645 31.582028 Z M 12.739329 31.582028 " transform="matrix(1.03125,0,0,1.03125,-4.25462,-3.193967)"/>
    <path style="fill:none;stroke-width:0.4;stroke-linecap:butt;stroke-linejoin:miter;stroke:rgb(100%,100%,100%);stroke-opacity:1;stroke-miterlimit:4;" d="M 24.861142 1036.350068 L 15.713415 1036.350068 L 15.713415 1035.422037 C 18.679324 1035.422037 22.137657 1035.422037 24.861142 1035.422037 Z M 24.861142 1036.350068 " transform="matrix(1.03125,0,0,1.03125,-5.509146,-1037.15007)"/>
    <path style="fill:none;stroke-width:0.4;stroke-linecap:butt;stroke-linejoin:miter;stroke:rgb(100%,100%,100%);stroke-opacity:1;stroke-miterlimit:4;" d="M 26.584627 1036.350068 L 31.092203 1036.350068 L 31.092203 1035.70234 L 26.584627 1035.70234 Z M 26.584627 1036.350068 " transform="matrix(1.03125,0,0,1.03125,-5.509146,-1037.15007)"/>
    <path style=" stroke:none;fill-rule:nonzero;fill:rgb(39.607843%,48.235294%,51.372549%);fill-opacity:1;" d="M 11.957031 11.976562 L 14.957031 11.976562 C 15.785156 11.976562 16.457031 12.648438 16.457031 13.476562 C 16.457031 14.304688 15.785156 14.976562 14.957031 14.976562 L 11.957031 14.976562 C 11.128906 14.976562 10.457031 14.304688 10.457031 13.476562 C 10.457031 12.648438 11.128906 11.976562 11.957031 11.976562 Z M 11.957031 11.976562 "/>
    <path style=" stroke:none;fill-rule:nonzero;fill:rgb(34.509804%,43.137255%,45.882353%);fill-opacity:1;" d="M 9.410156 13.476562 L 38.589844 13.476562 C 39.644531 13.476562 40.5 14.332031 40.5 15.386719 L 40.5 32.566406 C 40.5 33.621094 39.644531 34.476562 38.589844 34.476562 L 9.410156 34.476562 C 8.355469 34.476562 7.5 33.621094 7.5 32.566406 L 7.5 15.386719 C 7.5 14.332031 8.355469 13.476562 9.410156 13.476562 Z M 9.410156 13.476562 "/>
    <path style=" stroke:none;fill-rule:nonzero;fill:rgb(93.333333%,90.980392%,83.529412%);fill-opacity:0.290196;" d="M 34.535156 13.476562 L 39.035156 13.476562 L 39.035156 34.476562 L 34.535156 34.476562 Z M 34.535156 13.476562 "/>
    <path style=" stroke:none;fill-rule:nonzero;fill:rgb(2.745098%,21.176471%,25.882353%);fill-opacity:1;" d="M 36 24 C 36 30.628906 30.628906 36 24 36 C 17.371094 36 12 30.628906 12 24 C 12 17.371094 17.371094 12 24 12 C 30.628906 12 36 17.371094 36 24 Z M 36 24 "/>
    <path style=" stroke:none;fill-rule:nonzero;fill:rgb(93.333333%,90.980392%,83.529412%);fill-opacity:1;" d="M 31.480469 24 C 31.480469 28.136719 28.128906 31.492188 23.992188 31.492188 C 19.855469 31.492188 16.5 28.136719 16.5 24 C 16.5 19.863281 19.855469 16.507812 23.992188 16.507812 C 28.128906 16.507812 31.480469 19.863281 31.480469 24 Z M 31.480469 24 "/>
    <path style=" stroke:none;fill-rule:nonzero;fill:rgb(51.372549%,58.039216%,58.823529%);fill-opacity:0.592157;" d="M 27.988281 17.679688 C 29.207031 19.011719 29.9375 20.761719 29.9375 22.710938 C 29.9375 26.851562 26.585938 30.203125 22.449219 30.203125 C 20.992188 30.203125 19.65625 29.792969 18.507812 29.070312 C 19.875 30.550781 21.835938 31.492188 24.007812 31.492188 C 28.144531 31.492188 31.5 28.136719 31.5 24 C 31.5 21.335938 30.085938 19.007812 27.988281 17.679688 Z M 27.988281 17.679688 "/>
    <path style=" stroke:none;fill-rule:nonzero;fill:rgb(93.333333%,90.980392%,83.529412%);fill-opacity:1;" d="M 38.277344 15.820312 C 38.277344 16.671875 37.585938 17.359375 36.738281 17.359375 C 35.886719 17.359375 35.199219 16.671875 35.199219 15.820312 C 35.199219 14.972656 35.886719 14.28125 36.738281 14.28125 C 37.585938 14.28125 38.277344 14.972656 38.277344 15.820312 Z M 38.277344 15.820312 "/>
  </g>
</svg>

<svg xmlns="http://www.w3.org/2000/svg" width="64" height="64" viewBox="0 0 48 48">
 <g>
  <path d="m 15 16.874 l -2.186 14.22 l 19.936 0 l -2.75 -14.227 m -15 0.008" transform="matrix(1.03125,0,0,1.03125,-4.25462,-3.193967)" style="stroke-opacity:1;fill:none;stroke-miterlimit:4;stroke:#fff;stroke-linecap:butt;stroke-linejoin:miter;stroke-width:0.5"/>
  <path d="m 12.739 31.582 l 0 3.03 l 20.09 0 l 0 -3.03 m -20.09 0" transform="matrix(1.03125,0,0,1.03125,-4.25462,-3.193967)" style="stroke-opacity:1;fill:none;stroke-miterlimit:4;stroke:#fff;stroke-linecap:butt;stroke-linejoin:miter;stroke-width:0.5"/>
  <path d="m 24.861 1036.35 l -9.148 0 l 0 -0.928 c 2.966 0 6.424 0 9.148 0 m 0 0.928" transform="matrix(1.03125,0,0,1.03125,-5.509146,-1037.15007)" style="stroke-opacity:1;fill:none;stroke-miterlimit:4;stroke:#fff;stroke-linecap:butt;stroke-linejoin:miter;stroke-width:0.4"/>
  <path d="m 26.585 1036.35 l 4.508 0 l 0 -0.648 l -4.508 0 m 0 0.648" transform="matrix(1.03125,0,0,1.03125,-5.509146,-1037.15007)" style="stroke-opacity:1;fill:none;stroke-miterlimit:4;stroke:#fff;stroke-linecap:butt;stroke-linejoin:miter;stroke-width:0.4"/>
  <path d="m 11.957 11.977 l 3 0 c 0.828 0 1.5 0.672 1.5 1.5 c 0 0.828 -0.672 1.5 -1.5 1.5 l -3 0 c -0.828 0 -1.5 -0.672 -1.5 -1.5 c 0 -0.828 0.672 -1.5 1.5 -1.5 m 0 0" style="fill:#647a82;fill-opacity:1;stroke:none;fill-rule:nonzero"/>
  <path d="m 9.41 13.477 l 29.18 0 c 1.055 0 1.91 0.855 1.91 1.91 l 0 17.18 c 0 1.055 -0.855 1.91 -1.91 1.91 l -29.18 0 c -1.055 0 -1.91 -0.855 -1.91 -1.91 l 0 -17.18 c 0 -1.055 0.855 -1.91 1.91 -1.91 m 0 0" style="fill:#586e75;fill-opacity:1;stroke:none;fill-rule:nonzero"/>
  <path d="m 34.535 13.477 l 4.5 0 l 0 21 l -4.5 0 m 0 -21" style="fill:#ede7d5;fill-opacity:0.29;stroke:none;fill-rule:nonzero"/>
  <path d="m 36 24 c 0 6.629 -5.371 12 -12 12 c -6.629 0 -12 -5.371 -12 -12 c 0 -6.629 5.371 -12 12 -12 c 6.629 0 12 5.371 12 12 m 0 0" style="fill:#063642;fill-opacity:1;stroke:none;fill-rule:nonzero"/>
  <path d="m 31.48 24 c 0 4.137 -3.352 7.492 -7.488 7.492 c -4.137 0 -7.492 -3.355 -7.492 -7.492 c 0 -4.137 3.355 -7.492 7.492 -7.492 c 4.137 0 7.488 3.355 7.488 7.492 m 0 0" style="fill:#ede7d5;fill-opacity:1;stroke:none;fill-rule:nonzero"/>
  <path d="m 27.988 17.68 c 1.219 1.332 1.949 3.082 1.949 5.03 c 0 4.141 -3.352 7.492 -7.488 7.492 c -1.457 0 -2.793 -0.41 -3.941 -1.133 c 1.367 1.48 3.328 2.422 5.5 2.422 c 4.137 0 7.492 -3.355 7.492 -7.492 c 0 -2.664 -1.414 -4.992 -3.512 -6.32 m 0 0" style="fill:#829495;fill-opacity:0.592;stroke:none;fill-rule:nonzero"/>
  <path d="m 38.28 15.82 c 0 0.852 -0.691 1.539 -1.539 1.539 c -0.852 0 -1.539 -0.688 -1.539 -1.539 c 0 -0.848 0.688 -1.539 1.539 -1.539 c 0.848 0 1.539 0.691 1.539 1.539 m 0 0" style="fill:#ede7d5;fill-opacity:1;stroke:none;fill-rule:nonzero"/>
 </g>
</svg>
